X:57
T:Border Ride
C:Mark Briere solo
N:Transcribed by Mike Stangeland
R:bluegrass
L:1/8
Q:1/4=288
M:4/4
K:A
c2 d2 ^d2 | e2 c2 d2 B2 | c2 A2 B2 G2 | A2 A2 G2 F2 | E8 |
|: "A"[c'2a2] [c'4a4] [d'2b2] | [c'4a4] [b4g4] | [a2f2] [a4f4] [b2g2] | [a4f4] [g4e4] | [af][af] [a2f2] [ge][ge] [g2e2] | 
[fd][fd] [f2d2] [ec][ec] [e2c2] | "E"[dB][dB] [dB][dB] [dB][dB] [cA][cA] | [BG][BG] [BG][BG] [BG][BG] [AF][AF] | 
[FD][FD] [F2D2] [FC][FC] [F2C2] | [DB,][DB,] [DB,][DB,] [D4B,4] | [b2g2] [b4g4] [c'2a2] | 
[bg][bg] [b2g2] [af][af] [a2f2] | [g2e2] [g4e4] [a2f2] | [ge][ge] [ge][ge] [fd][fd] [fd][fd] | 
[ec][ec] [ec][ec] [fd][fd] [fd][fd] | [ec][ec] [ec][ec] [dB][dB] [dB][dB] | "A"[cA][cA] [cA][cA] [BG][BG] [BG][BG] | [AF][AF] [AF][AF] [A4E4] :| 
|"E"e2 d2 G2 e2 | d2 G2 ed G2 | e2 d2 G2 e2 | d2 G2 ed G2 | 
[b2g2] [b4g4] [c'2a2] | [bg][bg] [bg][bg] [af][af] [af][af] | [g2e2] [g4e4] [a2f2] | 
[ge][ge] [ge][ge] [fd][fd] [fd][fd] | ef ge fg ef | gf eg fe fg | "A"ae =gf ed cB | 
AB cB A=G FE | "D"DE FG AB de | fe df ed BA | "A"c2 [e2e2] [e2e2] [e2e2] | ef ed cB AF | 
"E"EF GA Bc de | ge dc BA GB | "A"AB cB AG FG | ED CB, A,B, CE | "D"DE FG AB de | 
fe df ed BA | "A"c2 [e2e2] [e2e2] [e2e2] | ef ed cB A2 | "E"bg ef gf gf | ef ed cB GB | "A"AB cB AF EF | A8 | 

